Suru++-Ubuntu/apps/symbolic/wallpapoz-symbolic.svg

<svg width="16" height="16" version="1.1" xmlns="http://www.w3.org/2000/svg">
 <path d="m2.0804518 1.8316195a1.6058302 1.6058302 0 0 0-1.501953 2.1015625l2.982422 9.634766a1.6058302 1.6058302 0 0 0 3.0703124-0.01172l1.3691406-4.5371085 1.3671875 4.5371105a1.6058302 1.6058302 0 0 0 3.0722657 0.01172l2.980469-9.634768a1.6058302 1.6058302 0 1 0-3.066406-0.9492187l-1.427735 4.6152343-1.3886718-4.6035156a1.6058302 1.6058302 0 0 0-3.0742188 0l-1.3886716 4.6035156-1.427735-4.6152343a1.6058302 1.6058302 0 0 0-1.566406-1.1523438z" style="fill:#808080"/>
</svg>

<svg xmlns="http://www.w3.org/2000/svg" width="16" height="16" version="1.1">
 <path style="fill:#808080" d="M 2.0804518,1.8316195 A 1.6058302,1.6058302 0 0 0 0.57849879,3.933182 l 2.98242201,9.634766 a 1.6058302,1.6058302 0 0 0 3.0703124,-0.01172 L 8.0003738,9.0191195 9.3675613,13.55623 a 1.6058302,1.6058302 0 0 0 3.0722657,0.01172 L 15.420296,3.933182 A 1.6058302,1.6058302 0 1 0 12.35389,2.9839633 L 10.926155,7.5991976 9.5374832,2.995682 a 1.6058302,1.6058302 0 0 0 -3.0742188,0 L 5.0745928,7.5991976 3.6468578,2.9839633 A 1.6058302,1.6058302 0 0 0 2.0804518,1.8316195 Z"/>
</svg>
